dist/assets/images/icons/otr/ico-slide-6-h.svg

<svg width="53" height="53" viewBox="0 0 53 53" fill="none" xmlns="http://www.w3.org/2000/svg">
<circle cx="26.5" cy="26.5" r="26.5" fill="transition"/>
<path d="M33.6 18.4999H29.361C29.358 20.1417 29.3568 22.8945 29.3604 23.0801C29.3706 23.6018 29.1372 24.1621 28.7595 24.8042C28.634 25.0175 28.2932 25.5386 27.9941 25.9912C27.8424 26.2209 27.6981 26.438 27.5917 26.5976L27.4643 26.7885L27.4291 26.8412L27.4199 26.855L27.4188 26.8566C26.11 28.878 25.5 30.4402 25.5 32.265V42.4568C25.5232 42.4748 25.5745 42.4991 25.65 42.4991H37.35C37.4255 42.4991 37.4768 42.4748 37.5 42.4568V32.265C37.5 30.3313 36.8751 28.7291 35.5597 26.7464C35.5449 26.7242 35.4835 26.6346 35.3942 26.5043C35.0752 26.0391 34.3999 25.0541 34.2186 24.757C33.8367 24.1314 33.6 23.5859 33.6 23.0645V18.4999Z" stroke="#fff"/>
<path d="M25.7 14.9004H20.2521C20.2484 16.5749 20.2468 18.0233 20.2513 18.26C20.2631 18.8739 19.9925 19.5482 19.5295 20.3492C19.3772 20.6127 18.9599 21.2618 18.591 21.8299C18.4044 22.1173 18.2268 22.389 18.096 22.5888L17.9393 22.8277L17.896 22.8937L17.8846 22.911L17.8827 22.9138C16.265 25.4557 15.5 27.4373 15.5 29.7588V42.5598C15.5 42.5619 15.5001 42.5663 15.5049 42.5753C15.5102 42.5854 15.5223 42.6025 15.5467 42.622C15.5968 42.6621 15.6847 42.6999 15.8 42.6999H30.2C30.3153 42.6999 30.4032 42.6621 30.4533 42.622C30.4777 42.6025 30.4898 42.5854 30.4951 42.5753C30.4999 42.5663 30.5 42.5619 30.5 42.5598V29.7588C30.5 27.3018 29.7174 25.2702 28.0905 22.7753C28.0709 22.7454 27.9919 22.6281 27.8779 22.4588C27.4819 21.8712 26.6633 20.6563 26.4425 20.2883C25.9746 19.5085 25.7 18.8519 25.7 18.2379V14.9004Z" fill="#0000BD" stroke="#fff"/>
<path d="M20.2685 9.28096V9.28103L19.7685 9.27932L20.2685 9.28105L20.2685 9.28111L20.2685 9.28136L20.2685 9.28236L20.2685 9.28633L20.2684 9.30206L20.2682 9.36356L20.2674 9.59835L20.2647 10.4474C20.2628 11.0372 20.2605 11.8011 20.2582 12.6204H25.7002V9.27596C25.7002 8.94926 25.3182 8.5 24.5949 8.5H21.3781C20.6507 8.5 20.2696 8.94824 20.2685 9.28096Z" stroke="#fff"/>
</svg>

<svg width="53" height="53" fill="none" xmlns="http://www.w3.org/2000/svg"><circle cx="26.5" cy="26.5" r="26.5" fill="transition"/><path d="M33.6 18.5h-4.239a942.016 942.016 0 000 4.58c.01.522-.224 1.082-.602 1.724a40 40 0 01-.765 1.187l-.402.607-.128.19-.035.053-.01.014v.002C26.11 28.878 25.5 30.44 25.5 32.265v10.192a.251.251 0 00.15.042h11.7a.251.251 0 00.15-.042V32.265c0-1.934-.625-3.536-1.94-5.519a51.127 51.127 0 00-.166-.242c-.319-.465-.994-1.45-1.175-1.747-.382-.626-.619-1.171-.619-1.693V18.5z" stroke="#fff"/><path d="M25.7 14.9h-5.448a429.481 429.481 0 000 3.36c.011.614-.26 1.288-.723 2.09-.152.263-.57.912-.938 1.48l-.495.759-.157.239-.043.066-.011.017-.002.003c-1.618 2.542-2.383 4.523-2.383 6.845v12.8c0 .003 0 .007.005.016.005.01.017.027.042.047a.41.41 0 00.253.078h14.4a.41.41 0 00.253-.078.157.157 0 00.042-.047c.005-.009.005-.013.005-.015V29.759c0-2.457-.783-4.489-2.41-6.984l-.212-.316c-.396-.588-1.215-1.803-1.436-2.17-.467-.78-.742-1.437-.742-2.051V14.9z" fill="#0000BD" stroke="#fff"/><path d="M20.268 9.281v0l-.5-.002.5.002h0v.317l-.003.85-.007 2.172H25.7V9.276c0-.327-.382-.776-1.105-.776h-3.217c-.727 0-1.108.448-1.11.781z" stroke="#fff"/></svg>
